icon/fa/bars-progress.svg

<svg xmlns="http://www.w3.org/2000/svg" viewBox="0 0 512 512"><!--! Font Awesome Free 6.1.2 by @fontawesome - https://fontawesome.com License - https://fontawesome.com/license/free (Icons: CC BY 4.0, Fonts: SIL OFL 1.1, Code: MIT License) Copyright 2022 Fonticons, Inc.--><path d="M464 64c26.5 0 48 21.49 48 48v64c0 26.5-21.5 48-48 48H48c-26.51 0-48-21.5-48-48v-64c0-26.51 21.49-48 48-48h416zm-16 64H320v32h128v-32zm16 160c26.5 0 48 21.5 48 48v64c0 26.5-21.5 48-48 48H48c-26.51 0-48-21.5-48-48v-64c0-26.5 21.49-48 48-48h416zm-272 64v32h256v-32H192z"/></svg>

<svg xmlns="http://www.w3.org/2000/svg" viewBox="0 0 512 512" height="1em" width="1em">
<!--! Font Awesome Free 6.1.2 by @fontawesome - https://fontawesome.com License - https://fontawesome.com/license/free (Icons: CC BY 4.0, Fonts: SIL OFL 1.1, Code: MIT License) Copyright 2022 Fonticons, Inc.-->
  <path d="M464 64C490.5 64 512 85.49 512 112V176C512 202.5 490.5 224 464 224H48C21.49 224 0 202.5 0 176V112C0 85.49 21.49 64 48 64H464zM448 128H320V160H448V128zM464 288C490.5 288 512 309.5 512 336V400C512 426.5 490.5 448 464 448H48C21.49 448 0 426.5 0 400V336C0 309.5 21.49 288 48 288H464zM192 352V384H448V352H192z"/>
</svg>
